img/part6/6/4_商標授權使用_icon.svg

<svg width="41" height="40" viewBox="0 0 41 40" fill="none" xmlns="http://www.w3.org/2000/svg"><path d="M20.1257 0C9.08109 0 0.125732 8.95536 0.125732 20C0.125732 31.0446 9.08109 40 20.1257 40C31.1704 40 40.1257 31.0446 40.1257 20C40.1257 8.95536 31.1704 0 20.1257 0ZM20.3668 29.9107C15.4561 29.9107 12.6257 26.6429 12.6257 21.2098V18.875C12.6257 13.4018 15.4561 10.0893 20.3623 10.0893C24.5722 10.0893 27.6257 12.7991 27.6257 16.6696C27.6257 16.7857 27.532 16.8795 27.4159 16.8795H24.8847C24.6972 16.8795 24.5454 16.7366 24.5275 16.5491C24.3489 14.3393 22.7418 12.8259 20.3757 12.8259C17.4606 12.8259 15.8177 14.9911 15.8177 18.875V21.2232C15.8177 25.0491 17.465 27.1875 20.3757 27.1875C22.7329 27.1875 24.3356 25.7723 24.5275 23.7143C24.5454 23.5313 24.6972 23.3884 24.8847 23.3884H27.4204C27.5364 23.3884 27.6302 23.4821 27.6302 23.5982C27.6302 27.2857 24.5632 29.9107 20.3668 29.9107Z" fill="#B04B19"></path></svg>

<svg width="41" height="40" fill="none" xmlns="http://www.w3.org/2000/svg"><path d="M20.126 0c-11.045 0-20 8.955-20 20s8.955 20 20 20c11.044 0 20-8.955 20-20s-8.956-20-20-20Zm.24 29.91c-4.91 0-7.74-3.267-7.74-8.7v-2.335c0-5.473 2.83-8.786 7.736-8.786 4.21 0 7.264 2.71 7.264 6.58a.21.21 0 0 1-.21.21h-2.531a.36.36 0 0 1-.358-.33c-.178-2.21-1.785-3.723-4.151-3.723-2.915 0-4.558 2.165-4.558 6.049v2.348c0 3.826 1.647 5.965 4.558 5.965 2.357 0 3.96-1.416 4.151-3.474a.36.36 0 0 1 .358-.326h2.535a.21.21 0 0 1 .21.21c0 3.688-3.067 6.313-7.263 6.313Z" fill="#B04B19"/></svg>
